Zorin/scalable/status/audio-volume-high-symbolic.svg

<svg xmlns="http://www.w3.org/2000/svg" height="16" width="16"  fill="#333"><path d="M7.999.999L3.956 5.044H.954v6h3.09l3.955 3.955zM10 1v1.5c2.32.74 4 2.93 4 5.5s-1.68 4.76-4 5.5V15c3.15-.78 5.5-3.6 5.5-7S13.15 1.78 10 1zm1.79 7A3.4 3.4 0 0 0 10 5v6a3.42 3.42 0 0 0 1.79-3z"/></svg>

<svg xmlns="http://www.w3.org/2000/svg" width="16" height="16" version="1.1">
 <path style="fill:#444444" d="M 8 1 L 4 5 L 1 5 L 1 11 L 4 11 L 8 15 L 8 1 z M 10 1 L 10 2.5 C 12.32 3.24 14 5.43 14 8 C 14 10.57 12.32 12.76 10 13.5 L 10 15 C 13.15 14.22 15.5 11.4 15.5 8 C 15.5 4.6 13.15 1.78 10 1 z M 10 5 L 10 11 C 11.06 10.42 11.789 9.3 11.789 8 C 11.789 6.7 11.07 5.58 10 5 z"/>
</svg>
